!!!COM: Corelli, Arcangelo
!!!OPR: Sonata da chiesa
!!!OPS: 3
!!!ONM: 8
!!!OMV: 1
!!!OMD: Largo
**kern	**fb	**kern	**kern	**kern
*part4	*part4	*part3	*part2	*part1
*staff4	*	*staff3	*staff2	*staff1
*clefF4	*	*clefF4	*clefG2	*clefG2
*k[]	*	*k[]	*k[]	*k[]
*M4/4	*	*M4/4	*M4/4	*M4/4
*met(c)	*	*met(c)	*met(c)	*met(c)
=1	=1	=1	=1	=1
4.c	.	4.c	4.ee	4.gg
8c	.	8c	16ccLL	16eeLL
.	.	.	16ddJJ	16ffJJ
4C	.	4C	8.eeL	8.ggL
.	.	.	16eeJk	16ggJk
4F	6	4F	8.ddL	8.ffL
.	.	.	16ccJk	16eeJk
=	=	=	=	=
4.G	.	4.G	4.b	4.dd
8E	6	8E	8ee	8gg
8FL	.	8FL	(16aLL	8aaL
.	.	.	16bJ	.
8E	6	8E	8ccJ)	8ggJ
8D	7	8D	8.ccTL	4ff
8GGJ	7	8GGJ	.	.
.	.	.	16bJk	.
=	=	=	=	=
8CL	.	8CL	8ccL	4ee
8c	.	8c	8ee	.
8B	6	8B	8dd	8r
8BBJ	.	8BBJ	8gJ	8gg
8AAL	6	8AAL	8r	8ffL
8A	.	8A	8ccL	8fJ
8G	6	8G	8b	8r
8GGJ	.	8GGJ	8eJ	8ee
=	=	=	=	=
8FFL	6	8FFL	8r	8ddL
8F	.	8F	8aaL	8dJ
8E	6	8E	8gg	8r
8CJ	.	8CJ	8eeJ	8cc
8DL	.	8DL	4a	4.ff
8C	.	8C	.	.
8BB	5	8BB	[4dd	.
8GGJ	.	8GGJ	.	(16ggLL
.	.	.	.	16ffJJ)
=	=	=	=	=
8CL	9	8CL	8ddL]	4.ee
8c	.	8c	8gJ	.
8E	6	8E	4.cc	.
8FJ	5	8FJ	.	8aa
8GL	5 4	8GL	.	4.dd
8GG	.	8GG	(16ddLL	.
.	.	.	16ccJJ)	.
8BB	6	8BB	[4b	.
8GGJ	.	8GGJ	.	(16eeLL
.	.	.	.	16ddJJ)
=	=	=	=	=
8AAL	9	8AAL	8bL]	4.cc
8A	.	8A	(16ccL	.
.	.	.	16bJJ)	.
8F#X	5	8F#X	4.a	.
8DJ	.	8DJ	.	(16ddLL
.	.	.	.	16ccJJ)
8GL	9	8GL	.	4.b
8GG	.	8GG	8d	.
8BB	6	8BB	[4g	.
8GGJ	.	8GGJ	.	8dd
=	=	=	=	=
8CL	6 5	8CL	4g]	(16eeLL
.	.	.	.	16dd)
8AA	.	8AA	.	(16cc
.	.	.	.	16bJJ)
8D	#	8D	4f#X	4a
8DDJ	.	8DDJ	.	.
4GG	.	4GG	4g	4g
8r	.	8r	4r	4gg
8G	.	8G	.	.
=	=	=	=	=
4A	7	4A	4r	8ccL
.	.	.	.	(16ddL
.	.	.	.	16eeJJ)
8r	.	8r	4dd	4.ff
8B	5	8B	.	.
4c	5 4	4c	8gL	.
.	.	.	(16aL	(16eeLL
.	.	.	16bJJ)	16ddJJ)
8r	.	8r	[4cc	8eeL
8C	3	8C	.	(16ddL
.	.	.	.	16ccJJ)
=	=	=	=	=
4G	5 4	4G	8ccL]	[4dd
.	.	.	(16bL	.
.	.	.	16aJJ)	.
4G#X	5 3	4G#X	4.b	16ddLL]
.	.	.	.	(16ff
.	.	.	.	16ee
.	.	.	.	16ddJJ)
8AL	9	8AL	.	[4cc
8AA	.	8AA	(16aLL	.
.	.	.	16g#XJJ)	.
8C	6	8C	[4a	16ccLL]
.	.	.	.	(16ee
8DJ	.	8DJ	.	16dd
.	.	.	.	16ccJJ)
=	=	=	=	=
8EL	5 4	8EL	4a]	8bL
8D	.	8D	.	8ccJ
8E	5 4	8E	8.aTL	4b
8EEJ	#	8EEJ	.	.
.	.	.	16g#XJk	.
4.AA	5	4.AA	4.a	8aL
.	.	.	.	8eeJ
.	6	.	.	[4ff
8A	.	8A	8cc	.
=	=	=	=	=
4.B	5	4.B	4.dd	8ffL]
.	.	.	.	(16eeL
.	.	.	.	16ddJJ)
.	6	.	.	4.gg
16ALL	.	16ALL	(16ccLL	.
16GJJ	.	16GJJ	16bJJ)	.
4.c	5	4.c	4.ee	.
.	.	.	.	16ff#XLL
.	.	.	.	16eeJJ
.	6	.	.	[4aa
8A	#6\	8A	16ff#XLL	.
.	.	.	16eeJJ	.
=	=	=	=	=
8BL	7 #	8BL	8dd#XL	8aaL]
8A	7 5	8A	8eeJ	8ggJ
8B	5 4	8B	8.eetL	4ff#X
8BBJ	#	8BBJ	.	.
.	.	.	16dd#Jk	.
4E	.	4E	4ee	4ee
8cL	.	8cL	4r	8ggL
8EJ	6	8EJ	.	8ccJ
=	=	=	=	=
4F	6	4F	4r	(8ddTL
.	.	.	.	8ccJ)
4E	6	4E	8ggL	2r
.	.	.	8ccJ	.
4F	6	4F	(8ddniTL	.
.	.	.	8ccJ)	.
8EL	6	8EL	8.eenL	8.ggL
8CJ	.	8CJ	.	.
.	.	.	16eeJk	16ggJk
=	=	=	=	=
8FL	.	8FL	8aL	8aaL
8G	.	8G	8bJ	8ggJ
8A	6	8A	8ccL	8.ffL
8FJ	.	8FJ	(16ddL	.
.	.	.	16ccJJ)	16eeJk
4G	.	4G	4b	8ddL
.	.	.	.	8gJ
8eL	6	8eL	4r	[4gg
8EJ	.	8EJ	.	.
=	=	=	=	=
4A	7	4A	4.cc	8ggL]
.	.	.	.	(16ffL
.	.	.	.	16eeJJ)
8dL	7	8dL	.	4.ff
8DJ	.	8DJ	(16bLL	.
.	.	.	16aJJ)	.
4G	7	4G	4.b	.
.	.	.	.	(16eeLL
.	.	.	.	16ddJJ)
8cL	7	8cL	.	[4ee
8CJ	.	8CJ	(16aLL	.
.	.	.	16gJJ)	.
=	=	=	=	=
4F	7	4F	4a	8eeL]
.	.	.	.	8aJ
4F#X	6	4F#X	4aa	8ddL
.	.	.	.	(16ddL
.	.	.	.	16ccJJ)
8GL	.	8GL	4dd	8bL
16GL	.	16GL	.	8gJ
16FnJJ	.	16FnJJ	.	.
8EL	6	8EL	8r	8r
8CJ	.	8CJ	8ee	8gg
=	=	=	=	=
8FL	.	8FL	8aL	8aaL
8G	.	8G	8bJ	8gg
8A	6	8A	2cc	8ff
8EJ	6	8EJ	.	8eeJ
8FL	6 5	8FL	.	2dd
8D	.	8D	.	.
8G	3	8G	4b	.
8GGJ	.	8GGJ	.	.
=	=	=	=	=
4C	.	4C	4cc	4cc
4BB	6	4BB	2r	8.ggL
.	.	.	.	16bJk
4AA	.	4AA	.	[2cc
4GG	.	4GG	8.ggL	.
.	.	.	16bJk	.
=	=	=	=	=
4FF	.	4FF	4cc	4cc]
4EE	6	4EE	4ee	8.cccL
.	.	.	.	16ggJk
4FF	.	4FF	8aL	8aaL
.	.	.	8bJ	8gg
4C	.	4C	[4cc	8ff
.	.	.	.	8eeJ
=	=	=	=	=
2GG	4	2GG	4cc]	2dd
.	3	.	4b	.
2C	.	2C	2cc	2cc
==	==	==	==	==
*-	*-	*-	*-	*-
!!!system-decoration: [{s1,s2},s3,s4]
!!!YEM: CC BY-NC-SA 4.0; CCARH; DCML
!!!RDF**kern: i = editorial accidental